packages/icons/raw/imported/TypeHandPointing.svg

<svg width="32" height="32" viewBox="0 0 32 32" fill="none" xmlns="http://www.w3.org/2000/svg">
<g filter="url(#filter0_d_2567:576)">
<path fill-rule="evenodd" clip-rule="evenodd" d="M11.8205 21.9501C11.9708 22.0855 12.0746 22.1828 12.3952 22.4874C12.7093 22.7857 12.8612 22.9267 13.0001 23.0446C13.058 23.0934 13.1074 23.2238 13.1269 23.4178C13.143 23.5773 13.1374 23.7553 13.1179 23.9268C13.1112 23.9861 13.1047 24.0289 13.1009 24.0493C13.0591 24.278 13.2334 24.4894 13.466 24.4917C13.6753 24.4939 13.8366 24.4965 14.2634 24.5041C14.3702 24.506 14.3702 24.506 14.4774 24.5078C15.6377 24.5278 16.2303 24.5223 16.6556 24.4688C17.1102 24.4117 17.5784 23.8626 17.9831 23.1737C18.3261 23.7833 18.8018 24.3786 19.2821 24.456C19.4347 24.4804 19.6194 24.4879 19.8333 24.483C19.9929 24.4793 20.1617 24.4688 20.332 24.4536C20.4605 24.4421 20.5629 24.4306 20.624 24.4226C20.8499 24.3933 20.9978 24.171 20.9374 23.9514C20.9244 23.9039 20.9034 23.8169 20.8823 23.7073C20.8578 23.5802 20.8401 23.4561 20.832 23.3431C20.8269 23.2714 20.8259 23.2065 20.8292 23.1504C20.8348 23.0526 20.8366 22.9979 20.8393 22.8713C20.8404 22.8242 20.8404 22.8242 20.8418 22.783C20.847 22.6482 20.8652 22.5201 20.9238 22.2408C20.949 22.1196 21.0711 21.8876 21.2634 21.6006C21.3207 21.5151 21.3833 21.4258 21.4504 21.3336C21.5776 21.1588 21.7145 20.9822 21.8514 20.8132C21.9335 20.712 21.9969 20.6363 22.0322 20.5951C22.3285 20.1707 22.6443 19.476 22.7604 19.0698C22.8718 18.6794 22.9609 17.9604 23.0157 17.2537C23.0457 16.8528 23.0568 16.5297 23.0568 16.0228C23.0569 15.9338 23.0569 15.9338 23.057 15.8604C23.0573 15.7402 23.0573 15.6947 23.0569 15.6385C23.0558 15.4849 23.0514 15.3327 23.0365 14.9444C23.0046 14.1308 22.5587 13.6047 21.9017 13.5033C21.3427 13.417 20.6623 13.8812 20.6623 13.8812C20.6623 13.8812 20.5108 13.3584 20.4086 13.197C20.2424 12.9377 19.8144 12.6072 19.4872 12.5428C19.1507 12.4775 18.7518 12.4847 18.3855 12.5495C18.0647 12.6069 17.7451 12.8933 17.5603 13.2023C17.4281 13.4227 17.5524 13.1906 17.4202 12.9626C17.2371 12.6486 16.8108 12.3674 16.4049 12.2844C16.061 12.2132 15.6669 12.2403 15.307 12.3473C14.8439 12.4857 14.7702 12.838 14.7518 12.7371C14.6902 12.3989 14.6845 12.4211 14.6461 12.1798C14.5036 11.2846 14.344 10.6651 14.1021 10.1246C14.116 10.1556 14.0135 9.92241 13.9762 9.84199C13.9116 9.70274 13.8471 9.5767 13.7762 9.45547C13.5577 9.08182 13.3073 8.80206 12.9931 8.64313C12.4475 8.36684 11.6297 8.5013 11.242 8.95378C10.8571 9.40345 10.7929 10.1553 10.8898 11.0856C10.9268 11.4468 11.0566 12.1063 11.1743 12.5937C11.2159 12.7629 11.2523 12.9172 11.3192 13.2023C11.3307 13.2507 11.3307 13.2507 11.3423 13.2992C11.394 13.515 11.4394 13.6924 11.4935 13.8872C11.4878 13.8669 11.5905 14.2313 11.6124 14.3119C11.6197 14.3388 11.6197 14.3388 11.6269 14.3659C11.6677 14.5197 11.7076 14.6855 11.77 14.9622C11.8041 15.1143 11.8374 15.2769 11.87 15.4492C11.9588 15.9191 11.9592 15.8213 11.8737 15.721C11.8147 15.6518 11.7591 15.589 11.7054 15.531C11.6057 15.4233 11.5139 15.3342 11.4269 15.2632C10.7925 14.7441 10.4037 14.5148 9.87005 14.4644C8.99463 14.3803 8.16385 14.9987 8.03893 15.8332C7.96211 16.3449 7.98686 16.5805 8.22357 17.0327C8.35383 17.277 8.57418 17.5721 8.9853 18.08C9.01046 18.1111 9.01046 18.1111 9.0356 18.1421C9.54025 18.764 9.59522 18.833 9.71522 19.0068C10.0396 19.4775 10.8292 20.829 10.9727 21.0104L11.8205 21.9501Z" fill="black"/>
<path fill-rule="evenodd" clip-rule="evenodd" d="M9.6179 17.6695C9.59301 17.6388 9.59301 17.6388 9.56819 17.6082C9.1909 17.142 8.98401 16.865 8.88663 16.6823C8.73381 16.3904 8.7255 16.3112 8.78057 15.9444C8.8453 15.512 9.31239 15.1643 9.79887 15.211C10.1355 15.2428 10.4296 15.4163 10.9523 15.844C11.0089 15.8902 11.0771 15.9564 11.1551 16.0407C11.2013 16.0905 11.2503 16.1459 11.3031 16.2079C11.3826 16.3009 11.6502 16.6284 11.6108 16.5808C11.6689 16.6507 11.7105 16.7048 11.758 16.7712C11.8521 16.9055 11.905 16.9801 11.9767 17.0757C11.9431 17.0309 12.1915 17.3742 12.244 17.4244C12.5226 17.6903 12.9261 17.4663 12.9008 17.1119C12.8966 17.0528 12.8827 16.9888 12.8536 16.8773C12.7388 16.058 12.6986 15.7951 12.6068 15.3099C12.5728 15.1296 12.5378 14.9589 12.5016 14.7977C12.4373 14.5121 12.3953 14.3376 12.3517 14.1734C12.3439 14.1443 12.3439 14.1443 12.3362 14.1156C12.3132 14.0308 12.2089 13.6609 12.2159 13.6857C12.1645 13.501 12.1213 13.332 12.0715 13.1244C12.0602 13.0771 12.0602 13.0771 12.0489 13.0295C11.9824 12.746 11.9451 12.5877 11.9029 12.4162C11.7929 11.9605 11.6686 11.329 11.6358 11.0085C11.5603 10.2843 11.6124 9.67432 11.8116 9.44162C11.9671 9.26005 12.408 9.18757 12.6543 9.3123C12.8154 9.39378 12.9764 9.57361 13.1287 9.83407C13.1863 9.93264 13.2404 10.0383 13.2957 10.1576C13.3293 10.2299 13.4287 10.456 13.4175 10.431C13.6278 10.9009 13.7723 11.4619 13.9054 12.2977C13.9448 12.5454 13.9935 12.826 14.056 13.1692C14.0746 13.271 14.0746 13.271 14.0933 13.3724C14.3947 15.0077 14.3726 14.8838 14.3769 15.0142C14.3927 15.49 15.095 15.5011 15.1259 15.0261C15.1357 14.8754 15.1322 14.7409 15.1149 14.3546C15.1124 14.3 15.1124 14.3 15.11 14.2455C15.0948 13.8896 15.0957 13.6849 15.1167 13.5685C15.1551 13.3562 15.3456 13.1185 15.5211 13.066C15.7675 12.9928 16.0375 12.9743 16.2538 13.019C16.4608 13.0613 16.7024 13.2207 16.7718 13.3396C16.8553 13.4836 16.9269 13.703 16.9818 13.9749C17.0261 14.1944 17.0566 14.4298 17.0781 14.6811C17.0847 14.7593 17.0891 14.8197 17.0958 14.9197C17.0986 14.9615 17.0986 14.9615 17.1015 14.996C17.1031 15.0134 17.1031 15.0134 17.107 15.0407C17.11 15.0599 17.11 15.0599 17.1243 15.1085C17.1316 15.2463 17.1316 15.2463 17.6852 15.2974C17.8505 15.0976 17.8505 15.0976 17.8459 15.0625C17.873 14.9442 17.8896 14.8123 17.9132 14.5644C17.9283 14.4033 17.9359 14.3241 17.9448 14.2419C17.9816 13.9018 18.0283 13.6857 18.0853 13.5907C18.156 13.4725 18.4051 13.3079 18.5168 13.2879C18.7973 13.2383 19.1054 13.2327 19.3432 13.2789C19.451 13.3001 19.7138 13.503 19.776 13.6001C19.9037 13.8016 20.028 14.4515 20.0979 15.0962C20.0869 15.1385 20.0869 15.1385 20.2586 15.3838C20.849 15.3165 20.849 15.3165 20.8324 15.2099C20.848 15.1719 20.8604 15.128 20.8779 15.0598C20.9201 14.9001 20.9481 14.8073 20.9897 14.7034C21.0185 14.6315 21.0489 14.5701 21.0801 14.5211C21.2007 14.3312 21.5132 14.2022 21.7871 14.2445C22.0814 14.2899 22.2689 14.5111 22.287 14.9734C22.3016 15.3539 22.3059 15.5001 22.3069 15.6437C22.3072 15.6966 22.3072 15.7392 22.3069 15.8588C22.3068 15.9327 22.3068 15.9327 22.3067 16.0227C22.3067 16.5117 22.2963 16.8163 22.2678 17.1967C22.2171 17.85 22.1317 18.5396 22.0391 18.8638C21.9447 19.1944 21.6627 19.8147 21.4394 20.1373C21.4235 20.1526 21.3556 20.2338 21.2687 20.341C21.1241 20.5194 20.9795 20.706 20.8439 20.8923C20.7713 20.992 20.7032 21.0892 20.6402 21.1832C20.3965 21.5469 20.2402 21.8439 20.1896 22.0874C20.1231 22.4039 20.0994 22.5717 20.0923 22.7536C20.0905 22.8052 20.0905 22.8052 20.0894 22.8551C20.0869 22.9732 20.0853 23.0208 20.0803 23.1072C20.0751 23.1978 20.0766 23.2943 20.0839 23.3963C20.0942 23.5423 20.0839 23.7418 20.0839 23.7418C20.0839 23.7418 19.9572 23.7299 19.816 23.7332C19.6435 23.7372 19.5 23.7313 19.4009 23.7154C19.2578 23.6924 18.8715 23.209 18.6737 22.8324C18.3715 22.256 17.6377 22.2839 17.3369 22.793C17.0656 23.2548 16.6772 23.7102 16.5619 23.7247C16.1873 23.7718 15.6072 23.7771 14.4902 23.7579C14.3834 23.7561 14.3834 23.7561 14.2767 23.7542C13.8478 23.7465 13.8643 23.8189 13.8731 23.7418C13.8981 23.5215 13.8953 23.5627 13.8731 23.3425C13.8358 22.9731 13.7218 22.672 13.4843 22.4719C13.3614 22.3676 13.2145 22.2312 12.9193 21.9508C12.5821 21.6305 12.4765 21.5315 12.3463 21.4171L11.545 20.5264C11.457 20.4139 10.685 19.0924 10.3325 18.581C10.1954 18.3824 10.1441 18.3179 9.6179 17.6695ZM19.1266 17.6732V21.1322C19.1266 21.6322 19.8766 21.6322 19.8766 21.1322V17.6732C19.8766 17.1732 19.1266 17.1732 19.1266 17.6732ZM17.095 17.6727L17.111 21.1457C17.1133 21.6457 17.8633 21.6422 17.861 21.1422L17.845 17.6692C17.8427 17.1692 17.0927 17.1727 17.095 17.6727ZM15.8859 21.1262L15.8649 17.7002C15.8619 17.2003 15.1119 17.2049 15.1149 17.7048L15.1359 21.1308C15.139 21.6308 15.889 21.6262 15.8859 21.1262Z" fill="white"/>
</g>
<defs>
<filter id="filter0_d_2567:576" x="-2" y="-1" width="36" height="36" filterUnits="userSpaceOnUse" color-interpolation-filters="sRGB">
<feFlood flood-opacity="0" result="BackgroundImageFix"/>
<feColorMatrix in="SourceAlpha" type="matrix" values="0 0 0 0 0 0 0 0 0 0 0 0 0 0 0 0 0 0 127 0" result="hardAlpha"/>
<feOffset dy="1"/>
<feGaussianBlur stdDeviation="1"/>
<feColorMatrix type="matrix" values="0 0 0 0 0 0 0 0 0 0 0 0 0 0 0 0 0 0 0.298656 0"/>
<feBlend mode="normal" in2="BackgroundImageFix" result="effect1_dropShadow_2567:576"/>
<feBlend mode="normal" in="SourceGraphic" in2="effect1_dropShadow_2567:576" result="shape"/>
</filter>
</defs>
</svg>

<svg width="32" height="32" fill="none" xmlns="http://www.w3.org/2000/svg"><g filter="url(#a)" fill-rule="evenodd" clip-rule="evenodd"><path d="M11.82 21.95c.15.136.255.233.575.537.314.299.466.44.605.558.058.048.107.179.127.373a2.447 2.447 0 0 1-.026.631.375.375 0 0 0 .365.443c.21.002.37.005.797.012l.214.004c1.16.02 1.753.014 2.179-.04.454-.056.922-.605 1.327-1.294.343.61.819 1.205 1.3 1.282.152.024.336.032.55.027a7.667 7.667 0 0 0 .791-.06.375.375 0 0 0 .313-.472 3.49 3.49 0 0 1-.105-.608 1.51 1.51 0 0 1-.003-.193c.006-.097.008-.152.01-.279l.003-.088c.005-.135.023-.263.082-.542.025-.121.147-.353.34-.64.057-.086.12-.175.186-.267a12.82 12.82 0 0 1 .582-.739 6.17 6.17 0 0 0 .728-1.525c.112-.39.2-1.11.256-1.816.03-.401.04-.724.04-1.231l.001-.163v-.221a21.798 21.798 0 0 0-.02-.695c-.032-.813-.478-1.34-1.135-1.44-.56-.087-1.24.377-1.24.377s-.151-.523-.253-.684c-.167-.26-.595-.59-.922-.654a3.137 3.137 0 0 0-1.101.007c-.321.057-.64.343-.826.652-.132.22-.008-.011-.14-.24-.183-.313-.61-.595-1.015-.678a2.31 2.31 0 0 0-1.098.063c-.463.139-.537.491-.555.39-.062-.338-.068-.316-.106-.557-.142-.895-.302-1.515-.544-2.055.014.03-.088-.203-.126-.283a4.55 4.55 0 0 0-.2-.387c-.218-.373-.469-.653-.783-.812-.546-.276-1.363-.142-1.751.31-.385.45-.45 1.202-.352 2.133.037.36.167 1.02.284 1.508.042.169.078.323.145.608l.023.097c.052.216.097.393.151.588l.12.425.014.054a15.954 15.954 0 0 1 .243 1.083c.089.47.09.372.004.272a6.201 6.201 0 0 0-.169-.19 2.81 2.81 0 0 0-.278-.268c-.634-.519-1.023-.748-1.557-.799-.875-.084-1.706.535-1.831 1.37-.077.51-.052.747.185 1.199.13.244.35.54.761 1.047l.05.062c.505.622.56.691.68.865.325.47 1.114 1.822 1.258 2.003l.847.94Z" fill="#000"/><path d="m9.618 17.67-.05-.062c-.377-.466-.584-.743-.681-.926-.153-.292-.162-.37-.106-.738.064-.432.531-.78 1.018-.733.337.032.63.205 1.153.633.057.046.125.112.203.197.046.05.095.105.148.167.08.093.347.42.308.373.058.07.1.124.147.19.094.134.147.21.219.305-.034-.045.214.298.267.348.279.266.682.042.657-.312a1.317 1.317 0 0 0-.047-.235 27.987 27.987 0 0 0-.247-1.567 16.382 16.382 0 0 0-.255-1.136l-.016-.058-.12-.43a15.423 15.423 0 0 1-.144-.562l-.023-.095a56.579 56.579 0 0 0-.146-.613 13.442 13.442 0 0 1-.267-1.408c-.076-.724-.024-1.334.176-1.566.155-.182.596-.254.842-.13.161.082.322.262.475.522.057.099.111.204.167.324l.122.273c.21.47.354 1.03.487 1.867a39.832 39.832 0 0 0 .188 1.074c.302 1.636.28 1.512.284 1.642.016.476.718.487.749.012.01-.15.006-.285-.011-.671l-.005-.11c-.015-.355-.014-.56.007-.676.038-.213.229-.45.404-.503.246-.073.517-.092.733-.047.207.042.448.202.518.32.083.145.155.364.21.636.044.22.075.455.096.706a12.553 12.553 0 0 1 .024.315l.005.045c.003.019.003.019.017.067.008.138.008.138.561.19.166-.2.166-.2.16-.236.028-.118.045-.25.068-.498l.032-.322c.037-.34.083-.556.14-.651.071-.118.32-.283.432-.303.28-.05.588-.055.826-.01.108.022.37.225.433.322.128.202.252.851.322 1.496-.011.043-.011.043.16.288.591-.068.591-.068.574-.174a1.16 1.16 0 0 0 .046-.15c.042-.16.07-.253.112-.357.029-.071.059-.133.09-.182.12-.19.433-.319.707-.277.294.046.482.267.5.73a21.23 21.23 0 0 1 .02.885v.164c0 .489-.01.793-.04 1.174-.05.653-.135 1.343-.228 1.667-.094.33-.376.95-.6 1.273a13.513 13.513 0 0 0-.8 1.046c-.242.364-.399.66-.45.904-.066.317-.09.485-.097.667l-.003.101a5.774 5.774 0 0 1-.009.252c-.005.09-.003.187.004.29.01.145 0 .345 0 .345s-.127-.012-.268-.009a2.46 2.46 0 0 1-.415-.018c-.143-.023-.53-.506-.727-.883-.302-.576-1.036-.548-1.337-.039-.271.462-.66.917-.775.932-.375.047-.955.052-2.072.033l-.213-.004c-.43-.008-.413.065-.404-.012.025-.22.022-.18 0-.4-.037-.369-.151-.67-.389-.87a14.69 14.69 0 0 1-.565-.521c-.337-.32-.443-.42-.573-.534l-.801-.89c-.088-.113-.86-1.435-1.213-1.946-.137-.199-.188-.263-.714-.912Zm9.509.003v3.46c0 .5.75.5.75 0v-3.46c0-.5-.75-.5-.75 0Zm-2.032 0 .016 3.473c.002.5.752.496.75-.004l-.016-3.473c-.002-.5-.752-.496-.75.004Zm-1.21 3.453-.02-3.426c-.003-.5-.753-.495-.75.005l.02 3.426c.004.5.754.495.75-.005Z" fill="#fff"/></g><defs><filter id="a" x="-2" y="-1" width="36" height="36" filterUnits="userSpaceOnUse" color-interpolation-filters="sRGB"><feFlood flood-opacity="0" result="BackgroundImageFix"/><feColorMatrix in="SourceAlpha" values="0 0 0 0 0 0 0 0 0 0 0 0 0 0 0 0 0 0 127 0" result="hardAlpha"/><feOffset dy="1"/><feGaussianBlur stdDeviation="1"/><feColorMatrix values="0 0 0 0 0 0 0 0 0 0 0 0 0 0 0 0 0 0 0.298656 0"/><feBlend in2="BackgroundImageFix" result="effect1_dropShadow_2567:576"/><feBlend in="SourceGraphic" in2="effect1_dropShadow_2567:576" result="shape"/></filter></defs></svg>
